Papirus/24x24/panel/screencloud-idle.svg

<?xml version="1.0" encoding="UTF-8" standalone="no"?>
<svg xmlns:dc="http://purl.org/dc/elements/1.1/" xmlns:cc="http://creativecommons.org/ns#" xmlns:rdf="http://www.w3.org/1999/02/22-rdf-syntax-ns#" xmlns:svg="http://www.w3.org/2000/svg" xmlns="http://www.w3.org/2000/svg" height="24" width="24" version="1.1" id="svg2" viewBox="0 0 24 24">
    <metadata id="metadata18">
        <rdf:RDF>
            <cc:Work rdf:about="">
                <dc:format>
                    image/svg+xml
                </dc:format>
                <dc:type rdf:resource="http://purl.org/dc/dcmitype/StillImage"/>
                <dc:title/>
            </cc:Work>
        </rdf:RDF>
    </metadata>
    <path id="path4171" d="m 18.996094,6 -0.09375,0.2402344 -0.251953,0.060547 0.201171,0.1640626 -0.02148,0.2578124 0.21875,-0.140625 L 19.287113,6.683594 19.220703,6.4316406 19.390625,6.2363281 19.130859,6.2207031 18.996094,6 Z m -0.673828,0.1484375 -0.371094,0.4121094 -0.546875,-0.072266 0.277344,0.4804688 -0.238282,0.5 0.541016,-0.1171875 0.402344,0.3808594 0.05664,-0.5507813 0.486329,-0.2636718 -0.50586,-0.2246094 -0.101562,-0.5449219 z M 9.0917969,6.59375 C 6.1337114,6.5948113 3.75,8.9781591 3.75,11.9375 c 0,0.122 -0.008,0.255 0,0.375 C 2.71,12.8145 2,13.833 2,15 c 0,1.671 1.447,3 3.25,3 l 13.5,0 c 1.803,0 3.25,-1.329 3.25,-3 0,-1.241 -0.7855,-2.31825 -1.9375,-2.78125 0.028,-0.188 0.03125,-0.3665 0.03125,-0.5625 0,-2.121 -1.724703,-3.84375 -3.845703,-3.84375 -1.065,0 -2.02275,0.425 -2.71875,1.125 C 12.565641,7.520006 10.936939,6.5944106 9.09375,6.59375 l -0.00195,0 z m 10.0019531,0.5 -0.06641,0.3886719 -0.357422,0.1679687 0.351562,0.1816406 0.04883,0.3925782 0.28125,-0.2773438 0.388672,0.076172 L 19.5625,7.6699219 19.753906,7.3222656 19.363281,7.3828125 19.09375,7.09375 Z M 6.984375,8 C 7.5373836,8 8,8.448 8,9 8,9.552 7.5373836,10 6.984375,10 6.4313664,10 6,9.552 6,9 6,8.448 6.4323216,8 6.984375,8 Z M 12,9 a 4,4 0 0 1 4,4 4,4 0 0 1 -4,4 4,4 0 0 1 -4,-4 4,4 0 0 1 4,-4 z m 0,2 a 2,2 0 0 0 -2,2 2,2 0 0 0 2,2 2,2 0 0 0 2,-2 2,2 0 0 0 -2,-2 z" style="opacity:1;fill:#ffffff;fill-opacity:1"/>
</svg>

<?xml version="1.0" encoding="UTF-8" standalone="no"?>
<svg id="svg2" xmlns:rdf="http://www.w3.org/1999/02/22-rdf-syntax-ns#" xmlns="http://www.w3.org/2000/svg" height="24" viewBox="0 0 24 24" width="24" version="1.1" xmlns:cc="http://creativecommons.org/ns#" xmlns:dc="http://purl.org/dc/elements/1.1/">
 <metadata id="metadata18">
  <rdf:RDF>
   <cc:Work rdf:about="">
    <dc:format>image/svg+xml</dc:format>
    <dc:type rdf:resource="http://purl.org/dc/dcmitype/StillImage"/>
    <dc:title/>
   </cc:Work>
  </rdf:RDF>
 </metadata>
 <path id="path4171" d="m18.996 6-0.09375 0.24023-0.25195 0.060547 0.20117 0.16406-0.02148 0.25781 0.21875-0.14062l0.238 0.1016-0.066-0.252 0.17-0.1953-0.26-0.0156-0.135-0.2207zm-0.67383 0.14844-0.37109 0.41211-0.54688-0.072266 0.27734 0.48047-0.23828 0.5 0.54102-0.11719 0.40234 0.38086 0.05664-0.55078 0.48633-0.26367-0.50586-0.22461-0.10156-0.54492zm-9.2302 0.4454c-2.9581 0.001-5.3418 2.3844-5.3418 5.3442 0 0.122-0.008 0.255 0 0.375-1.04 0.501-1.75 1.52-1.75 2.687 0 1.671 1.447 3 3.25 3h13.5c1.803 0 3.25-1.329 3.25-3 0-1.241-0.7855-2.3182-1.9375-2.7812 0.028-0.188 0.03125-0.3665 0.03125-0.5625 0-2.121-1.7247-3.8438-3.8457-3.8438-1.065 0-2.0228 0.425-2.7188 1.125-0.963-1.417-2.592-2.3426-4.4352-2.3432h-0.00195zm10.002 0.5-0.06641 0.38867-0.35742 0.16797 0.35156 0.18164 0.04883 0.39258 0.28125-0.27734 0.38867 0.076172l-0.18-0.3537 0.192-0.3476-0.391 0.0605-0.269-0.289zm-12.11 0.9062c0.553 0 1.0156 0.448 1.0156 1s-0.4626 1-1.0156 1-0.9844-0.448-0.9844-1 0.4323-1 0.9844-1zm5.0156 1a4 4 0 0 1 4 4 4 4 0 0 1 -4 4 4 4 0 0 1 -4 -4 4 4 0 0 1 4 -4zm0 2a2 2 0 0 0 -2 2 2 2 0 0 0 2 2 2 2 0 0 0 2 -2 2 2 0 0 0 -2 -2z" fill="#fff"/>
</svg>
